src/images/icon-react.svg

<svg width="113" height="101" viewBox="0 0 113 101" fill="none" xmlns="http://www.w3.org/2000/svg">
<g clip-path="url(#clip0_9_38)">
<path d="M92.9055 32.7027C91.7031 32.2887 90.4904 31.9051 89.2687 31.5523C89.4739 30.7106 89.6628 29.8792 89.8305 29.0623C92.5838 15.6484 90.7839 4.8418 84.636 1.28376C78.7415 -2.1272 69.1016 1.4295 59.3659 9.93344C58.4064 10.773 57.4682 11.6368 56.5521 12.524C55.9389 11.9341 55.3148 11.3556 54.6803 10.7888C44.4767 1.69618 34.2493 -2.13606 28.1081 1.43216C22.2189 4.85376 20.475 15.0127 22.9537 27.7254C23.2004 28.9844 23.4788 30.237 23.7888 31.4819C22.3411 31.8947 20.9442 32.3342 19.6073 32.802C7.6444 36.9881 0.00473022 43.5483 0.00473022 50.3529C0.00473022 57.3808 8.20626 64.43 20.6661 68.7044C21.6763 69.0495 22.6948 69.3692 23.7208 69.6634C23.3876 71.0042 23.0918 72.354 22.8337 73.7114C20.4706 86.2035 22.316 96.1223 28.1893 99.5222C34.2555 103.033 44.437 99.4248 54.3506 90.7268C55.1545 90.0197 55.9406 89.2925 56.7084 88.546C57.7004 89.5066 58.7189 90.4393 59.7627 91.343C69.366 99.6365 78.8501 102.985 84.7177 99.5762C90.7781 96.055 92.748 85.3995 90.1907 72.4356C89.9892 71.42 89.7633 70.4094 89.5132 69.4047C90.2282 69.1921 90.93 68.9733 91.6141 68.7456C104.567 64.4384 112.995 57.4748 112.995 50.3529C112.995 43.5235 105.109 36.919 92.9055 32.7027ZM90.0962 64.1474C89.4783 64.3525 88.8445 64.5505 88.1983 64.7432C86.7683 60.1995 84.8386 55.3684 82.4769 50.3764C84.7305 45.5036 86.586 40.734 87.9759 36.22C89.1318 36.5558 90.2533 36.9097 91.3347 37.2832C101.791 40.8961 108.169 46.2372 108.169 50.3529C108.169 54.7367 101.281 60.4277 90.0962 64.1474ZM85.4557 73.3765C86.5865 79.1087 86.7476 84.2916 85.9986 88.3435C85.3259 91.9844 83.9727 94.4115 82.299 95.3839C78.7385 97.4526 71.1235 94.7637 62.9109 87.6707C61.9401 86.8305 60.9927 85.9634 60.0698 85.0703C63.2539 81.5757 66.4357 77.5131 69.5412 73.0009C75.0036 72.5145 80.1641 71.7189 84.8439 70.6331C85.0694 71.5426 85.2733 72.4573 85.4557 73.3765ZM38.5257 95.0264C35.0468 96.2592 32.2759 96.2946 30.6009 95.3254C27.0369 93.2624 25.5552 85.298 27.5762 74.6151C27.8165 73.3527 28.0915 72.0972 28.4011 70.8502C33.0293 71.8779 38.1523 72.6168 43.6275 73.0624C46.7542 77.4776 50.0278 81.5358 53.327 85.0894C52.6259 85.7703 51.9082 86.4338 51.1745 87.0793C46.7904 90.9252 42.3974 93.654 38.5257 95.0264ZM22.2277 64.1204C16.7181 62.2302 12.168 59.7738 9.04928 57.0933C6.24658 54.6849 4.83199 52.2932 4.83199 50.3529C4.83199 46.2234 10.9657 40.9564 21.1962 37.3766C22.4378 36.9425 23.7372 36.5328 25.0856 36.1483C26.4997 40.7641 28.3543 45.5904 30.5925 50.4708C28.3252 55.4233 26.4441 60.3267 25.0163 64.997C24.0797 64.7278 23.1499 64.4355 22.2277 64.1204ZM27.691 26.7947C25.5675 15.9031 26.9777 7.68707 30.5268 5.62499C34.3067 3.42868 42.6653 6.56013 51.4755 14.4115C52.05 14.9247 52.6152 15.4482 53.1708 15.9819C49.8879 19.52 46.6443 23.5481 43.5454 27.9371C38.2313 28.4315 33.1445 29.2253 28.4678 30.2889C28.1796 29.1311 27.9206 27.9661 27.691 26.7951V26.7947ZM76.4301 38.8739C75.3255 36.9589 74.1798 35.0679 72.994 33.2024C76.5991 33.66 80.0533 34.2673 83.2969 35.0098C82.3233 38.1426 81.1095 41.4175 79.6808 44.7753C78.6365 42.7867 77.5527 40.8191 76.4301 38.8739ZM56.5543 19.4443C58.7806 21.8652 61.0104 24.5678 63.2036 27.5003C58.7546 27.2895 54.2981 27.2886 49.849 27.4977C52.0444 24.5922 54.2932 21.8931 56.5543 19.4443ZM36.551 38.9071C35.4425 40.8367 34.3789 42.792 33.3612 44.7713C31.9559 41.4255 30.7532 38.1355 29.7711 34.9584C32.9949 34.2346 36.4327 33.6427 40.0149 33.1936C38.8159 35.0705 37.6609 36.9754 36.551 38.9067V38.9071ZM40.1177 67.8569C36.4168 67.4423 32.9274 66.8811 29.7045 66.1767C30.702 62.9429 31.9312 59.5829 33.367 56.1653C34.3887 58.1461 35.4566 60.1026 36.57 62.0331C37.7149 64.0176 38.9004 65.9614 40.1177 67.8569ZM56.6876 81.6027C54.3996 79.1255 52.1177 76.3848 49.8892 73.4372C52.0528 73.5222 54.2583 73.5657 56.5 73.5657C58.8031 73.5657 61.0797 73.5138 63.3205 73.4137C61.1203 76.4145 58.8989 79.1592 56.6876 81.6027ZM79.7262 55.9908C81.2366 59.446 82.5095 62.7883 83.5203 65.9667C80.2444 66.7171 76.7073 67.3214 72.9804 67.7701C74.1746 65.87 75.3311 63.9462 76.4491 61.9998C77.5858 60.0215 78.6784 58.0179 79.7262 55.9908ZM72.268 59.5794C70.5564 62.5635 68.7487 65.4909 66.8475 68.3571C63.4038 68.6019 59.9524 68.7235 56.5 68.7216C52.9837 68.7216 49.5635 68.6118 46.27 68.3974C44.3192 65.5378 42.477 62.6053 40.7471 59.6059H40.7476C39.0259 56.6225 37.4177 53.5745 35.9265 50.4685C37.4139 47.3619 39.0172 44.3124 40.733 41.3267L40.7326 41.3272C42.4477 38.3407 44.2753 35.4206 46.2113 32.5734C49.5714 32.3182 53.0172 32.1853 56.4996 32.1853H56.5C59.9983 32.1853 63.4485 32.3196 66.8078 32.5765C68.7243 35.4195 70.5401 38.3295 72.2521 41.301C73.9736 44.2802 75.5981 47.3147 77.1231 50.3999C75.6138 53.5166 73.9944 56.5784 72.268 59.5794ZM82.2253 5.48058C86.0087 7.67068 87.4802 16.5024 85.103 28.0842C84.9512 28.8231 84.7808 29.5757 84.5954 30.339C79.9072 29.2528 74.8169 28.4452 69.4874 27.9433C66.3828 23.506 63.1656 19.4717 59.9361 15.9793C60.7825 15.1604 61.649 14.3628 62.5349 13.5872C70.8768 6.30142 78.6731 3.4247 82.2253 5.48058ZM56.5 40.2263C62.0723 40.2263 66.5898 44.7603 66.5898 50.3529C66.5898 55.9456 62.0723 60.4795 56.5 60.4795C50.9278 60.4795 46.4103 55.9456 46.4103 50.3529C46.4103 44.7603 50.9278 40.2263 56.5 40.2263Z" fill="#00D8FF"/>
</g>
<defs>
<clipPath id="clip0_9_38">
<rect width="113" height="101" fill="white"/>
</clipPath>
</defs>
</svg>

<?xml version="1.0" encoding="utf-8"?>
<!-- Generator: Adobe Illustrator 22.0.0, SVG Export Plug-In . SVG Version: 6.00 Build 0)  -->
<svg version="1.1" id="Layer_1" xmlns="http://www.w3.org/2000/svg" xmlns:xlink="http://www.w3.org/1999/xlink" x="0px" y="0px"
	 width="113px" height="101px" viewBox="0 0 113 101" style="enable-background:new 0 0 113 101;" xml:space="preserve">
<style type="text/css">
	.st0{clip-path:url(#SVGID_2_);}
</style>
<g>
	<defs>
		<rect id="SVGID_1_" width="113" height="101"/>
	</defs>
	<clipPath id="SVGID_2_">
		<use xlink:href="#SVGID_1_"  style="overflow:visible;"/>
	</clipPath>
	<g class="st0">
		<path d="M92.9,32.7c-1.2-0.4-2.4-0.8-3.6-1.2c0.2-0.8,0.4-1.7,0.6-2.5c2.8-13.4,1-24.2-5.2-27.8c-5.9-3.4-15.5,0.1-25.3,8.6
			c-1,0.8-1.9,1.7-2.8,2.6c-0.6-0.6-1.2-1.2-1.9-1.7C44.5,1.7,34.2-2.1,28.1,1.4C22.2,4.9,20.5,15,23,27.7c0.2,1.3,0.5,2.5,0.8,3.8
			c-1.4,0.4-2.8,0.9-4.2,1.3C7.6,37,0,43.5,0,50.4c0,7,8.2,14.1,20.7,18.4c1,0.3,2,0.7,3.1,1c-0.3,1.3-0.6,2.7-0.9,4
			c-2.4,12.5-0.5,22.4,5.4,25.8c6.1,3.5,16.2-0.1,26.2-8.8c0.8-0.7,1.6-1.4,2.4-2.2c1,1,2,1.9,3.1,2.8c9.6,8.3,19.1,11.6,25,8.2
			c6.1-3.5,8-14.2,5.5-27.1c-0.2-1-0.4-2-0.7-3c0.7-0.2,1.4-0.4,2.1-0.7c13-4.3,21.4-11.3,21.4-18.4C113,43.5,105.1,36.9,92.9,32.7z
			 M90.1,64.1c-0.6,0.2-1.3,0.4-1.9,0.6c-1.4-4.5-3.4-9.4-5.7-14.4c2.3-4.9,4.1-9.6,5.5-14.2c1.2,0.3,2.3,0.7,3.4,1.1
			c10.5,3.6,16.8,9,16.8,13.1C108.2,54.7,101.3,60.4,90.1,64.1z M85.5,73.4c1.1,5.7,1.3,10.9,0.5,15c-0.7,3.6-2,6.1-3.7,7
			c-3.6,2.1-11.2-0.6-19.4-7.7c-1-0.8-1.9-1.7-2.8-2.6c3.2-3.5,6.4-7.6,9.5-12.1c5.5-0.5,10.6-1.3,15.3-2.4
			C85.1,71.5,85.3,72.5,85.5,73.4z M38.5,95c-3.5,1.2-6.2,1.3-7.9,0.3c-3.6-2.1-5-10-3-20.7c0.2-1.3,0.5-2.5,0.8-3.8
			c4.6,1,9.8,1.8,15.2,2.2c3.1,4.4,6.4,8.5,9.7,12c-0.7,0.7-1.4,1.3-2.2,2C46.8,90.9,42.4,93.7,38.5,95z M22.2,64.1
			c-5.5-1.9-10.1-4.3-13.2-7c-2.8-2.4-4.2-4.8-4.2-6.7c0-4.1,6.1-9.4,16.4-13c1.2-0.4,2.5-0.8,3.9-1.2c1.4,4.6,3.3,9.4,5.5,14.3
			c-2.3,5-4.1,9.9-5.6,14.5C24.1,64.7,23.1,64.4,22.2,64.1z M27.7,26.8C25.6,15.9,27,7.7,30.5,5.6c3.8-2.2,12.1,0.9,20.9,8.8
			c0.6,0.5,1.1,1,1.7,1.6c-3.3,3.5-6.5,7.6-9.6,12c-5.3,0.5-10.4,1.3-15.1,2.4C28.2,29.1,27.9,28,27.7,26.8L27.7,26.8z M76.4,38.9
			c-1.1-1.9-2.3-3.8-3.4-5.7c3.6,0.5,7.1,1.1,10.3,1.8c-1,3.1-2.2,6.4-3.6,9.8C78.6,42.8,77.6,40.8,76.4,38.9z M56.6,19.4
			c2.2,2.4,4.5,5.1,6.6,8.1c-4.4-0.2-8.9-0.2-13.4,0C52,24.6,54.3,21.9,56.6,19.4z M36.6,38.9c-1.1,1.9-2.2,3.9-3.2,5.9
			c-1.4-3.3-2.6-6.6-3.6-9.8c3.2-0.7,6.7-1.3,10.2-1.8C38.8,35.1,37.7,37,36.6,38.9L36.6,38.9z M40.1,67.9c-3.7-0.4-7.2-1-10.4-1.7
			c1-3.2,2.2-6.6,3.7-10c1,2,2.1,3.9,3.2,5.9C37.7,64,38.9,66,40.1,67.9z M56.7,81.6c-2.3-2.5-4.6-5.2-6.8-8.2
			c2.2,0.1,4.4,0.1,6.6,0.1c2.3,0,4.6-0.1,6.8-0.2C61.1,76.4,58.9,79.2,56.7,81.6z M79.7,56c1.5,3.5,2.8,6.8,3.8,10
			c-3.3,0.8-6.8,1.4-10.5,1.8c1.2-1.9,2.4-3.8,3.5-5.8C77.6,60,78.7,58,79.7,56z M72.3,59.6c-1.7,3-3.5,5.9-5.4,8.8
			c-3.4,0.2-6.9,0.4-10.3,0.4c-3.5,0-6.9-0.1-10.2-0.3c-2-2.9-3.8-5.8-5.5-8.8h0c-1.7-3-3.3-6-4.8-9.1c1.5-3.1,3.1-6.2,4.8-9.1l0,0
			c1.7-3,3.5-5.9,5.5-8.8c3.4-0.3,6.8-0.4,10.3-0.4h0c3.5,0,6.9,0.1,10.3,0.4c1.9,2.8,3.7,5.8,5.4,8.7c1.7,3,3.3,6,4.9,9.1
			C75.6,53.5,74,56.6,72.3,59.6z M82.2,5.5c3.8,2.2,5.3,11,2.9,22.6c-0.2,0.7-0.3,1.5-0.5,2.3c-4.7-1.1-9.8-1.9-15.1-2.4
			c-3.1-4.4-6.3-8.5-9.6-12c0.8-0.8,1.7-1.6,2.6-2.4C70.9,6.3,78.7,3.4,82.2,5.5z M56.5,40.2c5.6,0,10.1,4.5,10.1,10.1
			c0,5.6-4.5,10.1-10.1,10.1c-5.6,0-10.1-4.5-10.1-10.1C46.4,44.8,50.9,40.2,56.5,40.2z"/>
	</g>
</g>
</svg>
